src/pages/elements/images/this-is-uncomfortable-desktop.svg

<svg xmlns="http://www.w3.org/2000/svg" viewBox="0 0 928 176"><g fill="none" fill-rule="evenodd"><path fill="#FFF" d="M0 0h928v176H0z"/><path d="M95.6 70.072H79.616V115h-6.048V70.072H57.584v-5.328H95.6v5.328zM101.304 115V61.72h5.76v22.176h.288c1.8-4.176 4.968-6.912 10.512-6.912 7.632 0 12.456 5.184 12.456 14.184V115h-5.76V92.176c0-6.624-2.88-10.008-8.424-10.008-4.608 0-9.072 2.304-9.072 7.056V115h-5.76zm41.776-45.864c-2.448 0-3.528-1.296-3.528-3.24v-.936c0-1.944 1.08-3.24 3.528-3.24s3.528 1.296 3.528 3.24v.936c0 1.944-1.08 3.24-3.528 3.24zM140.2 115V77.848h5.76V115h-5.76zm27.16.864c-6.84 0-11.376-2.88-14.688-7.272l4.104-3.312c2.88 3.6 6.336 5.688 11.016 5.688 4.896 0 7.776-2.232 7.776-6.048 0-2.88-1.584-5.112-6.48-5.832l-2.952-.432c-6.84-1.008-11.952-3.816-11.952-10.728 0-7.344 5.688-10.944 13.248-10.944 5.976 0 9.936 2.232 12.96 5.976l-3.816 3.456c-1.656-2.304-4.824-4.536-9.576-4.536-4.752 0-7.272 2.232-7.272 5.76 0 3.6 2.52 5.04 7.128 5.76l2.88.432c8.208 1.224 11.376 4.824 11.376 10.44 0 7.2-5.256 11.592-13.752 11.592zm39.776-46.728c-2.448 0-3.528-1.296-3.528-3.24v-.936c0-1.944 1.08-3.24 3.528-3.24s3.528 1.296 3.528 3.24v.936c0 1.944-1.08 3.24-3.528 3.24zM204.256 115V77.848h5.76V115h-5.76zm27.16.864c-6.84 0-11.376-2.88-14.688-7.272l4.104-3.312c2.88 3.6 6.336 5.688 11.016 5.688 4.896 0 7.776-2.232 7.776-6.048 0-2.88-1.584-5.112-6.48-5.832l-2.952-.432c-6.84-1.008-11.952-3.816-11.952-10.728 0-7.344 5.688-10.944 13.248-10.944 5.976 0 9.936 2.232 12.96 5.976l-3.816 3.456c-1.656-2.304-4.824-4.536-9.576-4.536-4.752 0-7.272 2.232-7.272 5.76 0 3.6 2.52 5.04 7.128 5.76l2.88.432c8.208 1.224 11.376 4.824 11.376 10.44 0 7.2-5.256 11.592-13.752 11.592zm59.792-.864v-6.048h-.288c-1.44 3.528-4.248 6.912-10.44 6.912-7.632 0-12.528-5.184-12.528-14.184V77.848h5.76v22.824c0 6.624 2.952 10.008 8.496 10.008 4.536 0 9-2.232 9-7.128V77.848h5.76V115h-5.76zm21.76 0h-5.76V77.848h5.76v6.048h.288c1.8-4.176 4.968-6.912 10.512-6.912 7.632 0 12.456 5.184 12.456 14.184V115h-5.76V92.176c0-6.624-2.88-10.008-8.424-10.008-4.608 0-9.072 2.304-9.072 7.056V115zm46.96.864c-10.44 0-16.56-7.56-16.56-19.44 0-11.88 6.12-19.44 16.56-19.44 7.344 0 11.736 3.6 13.896 8.712L369 88.144c-1.368-3.816-4.536-6.048-9.072-6.048-6.84 0-10.368 4.68-10.368 11.16v6.336c0 6.48 3.528 11.16 10.368 11.16 4.68 0 8.064-2.232 10.08-6.48l4.176 2.808c-2.376 5.328-7.2 8.784-14.256 8.784zm34 0c-9.936 0-16.776-7.632-16.776-19.44 0-11.808 6.84-19.44 16.776-19.44s16.776 7.632 16.776 19.44c0 11.808-6.84 19.44-16.776 19.44zm0-5.112c6.192 0 10.584-3.816 10.584-11.664V93.76c0-7.848-4.392-11.664-10.584-11.664-6.192 0-10.584 3.816-10.584 11.664v5.328c0 7.848 4.392 11.664 10.584 11.664zm30.04 4.248h-5.76V77.848h5.76v6.048h.288c1.656-3.816 4.248-6.912 10.008-6.912 4.896 0 9.36 2.232 11.376 7.56h.144c1.368-4.032 4.968-7.56 11.304-7.56 7.56 0 12.096 5.184 12.096 14.184V115h-5.76V92.176c0-6.552-2.52-10.008-8.136-10.008-4.536 0-8.712 2.304-8.712 7.056V115h-5.76V92.176c0-6.624-2.52-10.008-7.992-10.008-4.536 0-8.856 2.304-8.856 7.056V115zm57.112 0V82.888h-6.048v-5.04h6.048V70.36c0-5.112 2.664-8.64 8.136-8.64h5.616v5.04h-7.992v11.088h7.992v5.04h-7.992V115h-5.76zm33.064.864c-9.936 0-16.776-7.632-16.776-19.44 0-11.808 6.84-19.44 16.776-19.44s16.776 7.632 16.776 19.44c0 11.808-6.84 19.44-16.776 19.44zm0-5.112c6.192 0 10.584-3.816 10.584-11.664V93.76c0-7.848-4.392-11.664-10.584-11.664-6.192 0-10.584 3.816-10.584 11.664v5.328c0 7.848 4.392 11.664 10.584 11.664zm30.04 4.248h-5.76V77.848h5.76v6.84h.36c1.296-3.528 4.68-6.84 10.728-6.84h2.232v5.76h-3.384c-6.192 0-9.936 2.664-9.936 6.192V115zm34.36 0h-7.2c-3.96 0-6.12-2.52-6.12-6.12V82.888h-6.12v-5.04h3.456c2.448 0 3.24-.864 3.24-3.384v-6.912h5.184v10.296h8.136v5.04h-8.136v27.072h7.56V115zm38.104 0h-3.24c-4.248 0-5.976-2.592-6.408-6.048h-.36c-1.584 4.536-5.544 6.912-10.728 6.912-7.848 0-12.456-4.32-12.456-11.232 0-6.984 5.04-10.872 15.84-10.872h7.344v-3.672c0-5.256-2.88-8.136-8.784-8.136-4.464 0-7.416 2.16-9.432 5.544l-3.456-3.24c2.016-3.96 6.48-7.272 13.176-7.272 8.928 0 14.256 4.68 14.256 12.528v20.448h4.248V115zm-19.8-4.032c5.688 0 9.792-2.952 9.792-6.768v-6.12h-7.632c-6.552 0-9.504 2.016-9.504 5.616v1.512c0 3.672 2.88 5.76 7.344 5.76zM622.856 115V61.72h5.76v22.176h.288c1.944-4.68 5.76-6.912 10.872-6.912 9.288 0 15.12 7.56 15.12 19.44 0 11.88-5.832 19.44-15.12 19.44-5.112 0-8.64-2.304-10.872-6.912h-.288V115h-5.76zm15.336-4.32c6.48 0 10.512-4.464 10.512-11.088v-6.336c0-6.624-4.032-11.088-10.512-11.088-5.256 0-9.576 3.024-9.576 7.128v13.824c0 4.824 4.32 7.56 9.576 7.56zm35.656 4.32h-5.112c-3.96 0-6.12-2.52-6.12-5.976V61.72h5.76v48.24h5.472V115zm20.32.864c-10.08 0-16.704-7.632-16.704-19.44 0-11.808 6.624-19.44 16.704-19.44 9.936 0 16.056 7.632 16.056 18.144v2.736h-26.712v1.728c0 6.408 4.104 11.232 11.016 11.232 4.68 0 8.28-2.304 10.224-6.408l4.104 2.952c-2.376 5.04-7.704 8.496-14.688 8.496zm0-34.056c-6.264 0-10.656 4.752-10.656 11.232v.504h20.52v-.792c0-6.552-3.96-10.944-9.864-10.944zm25.792 34.056c-3.024 0-4.392-1.728-4.392-4.176v-.936c0-2.448 1.368-4.176 4.392-4.176s4.392 1.728 4.392 4.176v.936c0 2.448-1.368 4.176-4.392 4.176z" fill="#3D3D3D"/></g></svg>

<?xml version="1.0" encoding="UTF-8"?>
<svg width="928px" height="176px" viewBox="0 0 928 176" version="1.1" xmlns="http://www.w3.org/2000/svg" xmlns:xlink="http://www.w3.org/1999/xlink">
    <!-- Generator: Sketch 51.2 (57519) - http://www.bohemiancoding.com/sketch -->
    <title>Group 2</title>
    <desc>Created with Sketch.</desc>
    <defs></defs>
    <g id="Page-1" stroke="none" stroke-width="1" fill="none" fill-rule="evenodd">
        <g id="Type-Basics" transform="translate(-352.000000, -454.000000)">
            <g id="Group-2" transform="translate(352.000000, 454.000000)">
                <rect id="Rectangle-16-Copy-168" fill="#FFFFFF" x="0" y="0" width="928" height="176"></rect>
                <path d="M95.6,70.072 L79.616,70.072 L79.616,115 L73.568,115 L73.568,70.072 L57.584,70.072 L57.584,64.744 L95.6,64.744 L95.6,70.072 Z M101.304,115 L101.304,61.72 L107.064,61.72 L107.064,83.896 L107.352,83.896 C109.152,79.72 112.32,76.984 117.864,76.984 C125.496,76.984 130.32,82.168 130.32,91.168 L130.32,115 L124.56,115 L124.56,92.176 C124.56,85.552 121.68,82.168 116.136,82.168 C111.528,82.168 107.064,84.472 107.064,89.224 L107.064,115 L101.304,115 Z M143.08,69.136 C140.632,69.136 139.552,67.84 139.552,65.896 L139.552,64.96 C139.552,63.016 140.632,61.72 143.08,61.72 C145.528,61.72 146.608,63.016 146.608,64.96 L146.608,65.896 C146.608,67.84 145.528,69.136 143.08,69.136 Z M140.2,115 L140.2,77.848 L145.96,77.848 L145.96,115 L140.2,115 Z M167.36,115.864 C160.52,115.864 155.984,112.984 152.672,108.592 L156.776,105.28 C159.656,108.88 163.112,110.968 167.792,110.968 C172.688,110.968 175.568,108.736 175.568,104.92 C175.568,102.04 173.984,99.808 169.088,99.088 L166.136,98.656 C159.296,97.648 154.184,94.84 154.184,87.928 C154.184,80.584 159.872,76.984 167.432,76.984 C173.408,76.984 177.368,79.216 180.392,82.96 L176.576,86.416 C174.92,84.112 171.752,81.88 167,81.88 C162.248,81.88 159.728,84.112 159.728,87.64 C159.728,91.24 162.248,92.68 166.856,93.4 L169.736,93.832 C177.944,95.056 181.112,98.656 181.112,104.272 C181.112,111.472 175.856,115.864 167.36,115.864 Z M207.136,69.136 C204.688,69.136 203.608,67.84 203.608,65.896 L203.608,64.96 C203.608,63.016 204.688,61.72 207.136,61.72 C209.584,61.72 210.664,63.016 210.664,64.96 L210.664,65.896 C210.664,67.84 209.584,69.136 207.136,69.136 Z M204.256,115 L204.256,77.848 L210.016,77.848 L210.016,115 L204.256,115 Z M231.416,115.864 C224.576,115.864 220.04,112.984 216.728,108.592 L220.832,105.28 C223.712,108.88 227.168,110.968 231.848,110.968 C236.744,110.968 239.624,108.736 239.624,104.92 C239.624,102.04 238.04,99.808 233.144,99.088 L230.192,98.656 C223.352,97.648 218.24,94.84 218.24,87.928 C218.24,80.584 223.928,76.984 231.488,76.984 C237.464,76.984 241.424,79.216 244.448,82.96 L240.632,86.416 C238.976,84.112 235.808,81.88 231.056,81.88 C226.304,81.88 223.784,84.112 223.784,87.64 C223.784,91.24 226.304,92.68 230.912,93.4 L233.792,93.832 C242,95.056 245.168,98.656 245.168,104.272 C245.168,111.472 239.912,115.864 231.416,115.864 Z M291.208,115 L291.208,108.952 L290.92,108.952 C289.48,112.48 286.672,115.864 280.48,115.864 C272.848,115.864 267.952,110.68 267.952,101.68 L267.952,77.848 L273.712,77.848 L273.712,100.672 C273.712,107.296 276.664,110.68 282.208,110.68 C286.744,110.68 291.208,108.448 291.208,103.552 L291.208,77.848 L296.968,77.848 L296.968,115 L291.208,115 Z M312.968,115 L307.208,115 L307.208,77.848 L312.968,77.848 L312.968,83.896 L313.256,83.896 C315.056,79.72 318.224,76.984 323.768,76.984 C331.4,76.984 336.224,82.168 336.224,91.168 L336.224,115 L330.464,115 L330.464,92.176 C330.464,85.552 327.584,82.168 322.04,82.168 C317.432,82.168 312.968,84.472 312.968,89.224 L312.968,115 Z M359.928,115.864 C349.488,115.864 343.368,108.304 343.368,96.424 C343.368,84.544 349.488,76.984 359.928,76.984 C367.272,76.984 371.664,80.584 373.824,85.696 L369,88.144 C367.632,84.328 364.464,82.096 359.928,82.096 C353.088,82.096 349.56,86.776 349.56,93.256 L349.56,99.592 C349.56,106.072 353.088,110.752 359.928,110.752 C364.608,110.752 367.992,108.52 370.008,104.272 L374.184,107.08 C371.808,112.408 366.984,115.864 359.928,115.864 Z M393.928,115.864 C383.992,115.864 377.152,108.232 377.152,96.424 C377.152,84.616 383.992,76.984 393.928,76.984 C403.864,76.984 410.704,84.616 410.704,96.424 C410.704,108.232 403.864,115.864 393.928,115.864 Z M393.928,110.752 C400.12,110.752 404.512,106.936 404.512,99.088 L404.512,93.76 C404.512,85.912 400.12,82.096 393.928,82.096 C387.736,82.096 383.344,85.912 383.344,93.76 L383.344,99.088 C383.344,106.936 387.736,110.752 393.928,110.752 Z M423.968,115 L418.208,115 L418.208,77.848 L423.968,77.848 L423.968,83.896 L424.256,83.896 C425.912,80.08 428.504,76.984 434.264,76.984 C439.16,76.984 443.624,79.216 445.64,84.544 L445.784,84.544 C447.152,80.512 450.752,76.984 457.088,76.984 C464.648,76.984 469.184,82.168 469.184,91.168 L469.184,115 L463.424,115 L463.424,92.176 C463.424,85.624 460.904,82.168 455.288,82.168 C450.752,82.168 446.576,84.472 446.576,89.224 L446.576,115 L440.816,115 L440.816,92.176 C440.816,85.552 438.296,82.168 432.824,82.168 C428.288,82.168 423.968,84.472 423.968,89.224 L423.968,115 Z M481.08,115 L481.08,82.888 L475.032,82.888 L475.032,77.848 L481.08,77.848 L481.08,70.36 C481.08,65.248 483.744,61.72 489.216,61.72 L494.832,61.72 L494.832,66.76 L486.84,66.76 L486.84,77.848 L494.832,77.848 L494.832,82.888 L486.84,82.888 L486.84,115 L481.08,115 Z M514.144,115.864 C504.208,115.864 497.368,108.232 497.368,96.424 C497.368,84.616 504.208,76.984 514.144,76.984 C524.08,76.984 530.92,84.616 530.92,96.424 C530.92,108.232 524.08,115.864 514.144,115.864 Z M514.144,110.752 C520.336,110.752 524.728,106.936 524.728,99.088 L524.728,93.76 C524.728,85.912 520.336,82.096 514.144,82.096 C507.952,82.096 503.56,85.912 503.56,93.76 L503.56,99.088 C503.56,106.936 507.952,110.752 514.144,110.752 Z M544.184,115 L538.424,115 L538.424,77.848 L544.184,77.848 L544.184,84.688 L544.544,84.688 C545.84,81.16 549.224,77.848 555.272,77.848 L557.504,77.848 L557.504,83.608 L554.12,83.608 C547.928,83.608 544.184,86.272 544.184,89.8 L544.184,115 Z M578.544,115 L571.344,115 C567.384,115 565.224,112.48 565.224,108.88 L565.224,82.888 L559.104,82.888 L559.104,77.848 L562.56,77.848 C565.008,77.848 565.8,76.984 565.8,74.464 L565.8,67.552 L570.984,67.552 L570.984,77.848 L579.12,77.848 L579.12,82.888 L570.984,82.888 L570.984,109.96 L578.544,109.96 L578.544,115 Z M616.648,115 L613.408,115 C609.16,115 607.432,112.408 607,108.952 L606.64,108.952 C605.056,113.488 601.096,115.864 595.912,115.864 C588.064,115.864 583.456,111.544 583.456,104.632 C583.456,97.648 588.496,93.76 599.296,93.76 L606.64,93.76 L606.64,90.088 C606.64,84.832 603.76,81.952 597.856,81.952 C593.392,81.952 590.44,84.112 588.424,87.496 L584.968,84.256 C586.984,80.296 591.448,76.984 598.144,76.984 C607.072,76.984 612.4,81.664 612.4,89.512 L612.4,109.96 L616.648,109.96 L616.648,115 Z M596.848,110.968 C602.536,110.968 606.64,108.016 606.64,104.2 L606.64,98.08 L599.008,98.08 C592.456,98.08 589.504,100.096 589.504,103.696 L589.504,105.208 C589.504,108.88 592.384,110.968 596.848,110.968 Z M622.856,115 L622.856,61.72 L628.616,61.72 L628.616,83.896 L628.904,83.896 C630.848,79.216 634.664,76.984 639.776,76.984 C649.064,76.984 654.896,84.544 654.896,96.424 C654.896,108.304 649.064,115.864 639.776,115.864 C634.664,115.864 631.136,113.56 628.904,108.952 L628.616,108.952 L628.616,115 L622.856,115 Z M638.192,110.68 C644.672,110.68 648.704,106.216 648.704,99.592 L648.704,93.256 C648.704,86.632 644.672,82.168 638.192,82.168 C632.936,82.168 628.616,85.192 628.616,89.296 L628.616,103.12 C628.616,107.944 632.936,110.68 638.192,110.68 Z M673.848,115 L668.736,115 C664.776,115 662.616,112.48 662.616,109.024 L662.616,61.72 L668.376,61.72 L668.376,109.96 L673.848,109.96 L673.848,115 Z M694.168,115.864 C684.088,115.864 677.464,108.232 677.464,96.424 C677.464,84.616 684.088,76.984 694.168,76.984 C704.104,76.984 710.224,84.616 710.224,95.128 L710.224,97.864 L683.512,97.864 L683.512,99.592 C683.512,106 687.616,110.824 694.528,110.824 C699.208,110.824 702.808,108.52 704.752,104.416 L708.856,107.368 C706.48,112.408 701.152,115.864 694.168,115.864 Z M694.168,81.808 C687.904,81.808 683.512,86.56 683.512,93.04 L683.512,93.544 L704.032,93.544 L704.032,92.752 C704.032,86.2 700.072,81.808 694.168,81.808 Z M719.96,115.864 C716.936,115.864 715.568,114.136 715.568,111.688 L715.568,110.752 C715.568,108.304 716.936,106.576 719.96,106.576 C722.984,106.576 724.352,108.304 724.352,110.752 L724.352,111.688 C724.352,114.136 722.984,115.864 719.96,115.864 Z" id="This-is-uncomfortabl" fill="#3D3D3D"></path>
            </g>
        </g>
    </g>
</svg>
